!!!OTL: Changzhe geer qu fangyang
!!!ARE: Asia, China,ÿGuangdong Yingde
!! II, 358
!!!SCT: C1889
!!!YEM: Copyright 1995, estate of Helmut Schaffrath.
**kern
*ICvox
*Ivox
*M2/4
*k[b-e-]
*B-:
{8cc
8cc
8cc
8dd
=1
8cc
16cc
16b-
4g
=2
4dd
8b-
8dd
=3
16cc
16dd
4.cc}
=4
{8cc
8cc
8cc
8dd
=5
8cc
16cc
16b-
4g
=6
4cc
8b-
8cc
=7
8b-
4.g}
=8
{8dd
4.cc
=9
8cc
8cc
8dd
8dd
=10
8cc
16cc
16b-
4g
=11
4dd
8b-
8dd
=12
16cc
16dd
4.cc}
=13
{8cc
8cc
8cc
8dd
=14
8cc
16cc
16b-
4g
=15
4cc
8b-
8cc
=16
8b-
4.g}
=17
{8dd
4.cc
=18
8b-
8g
8b-
8cc
=19
8b-
4.g}
==
!!!AGN: Shange, Paoma diao
!!!AMT: simple duple
!!!AIN: vox
!!!EED: Helmut Schaffrath
!!!EEV: 1.0
*-
